X: 47
T:Cup of Tea, The
M:C|
L:1/8
R:reel
K:EDor
BAGF GEEF|GEBE GEEE|BAGF GEEE|FDAG FDDD |BAGF GEEF|GEBE GEEE|!
BAGF GAGc|dBAG FD D2 :|
|:d2 (3efg fdec |d2 eg fBBc|d2 (3efg fdec|dBAG FD D2 |!
d2 (3efg fdec |dfaf g2 fg|(3agf ge fdec|dBAG FD D2 :|
|:FAdA BAdA|FAdA GE E2 |!
FAdA FABc|dBAG FD D2 |FAdA BAdA|FAdA GE E2 |fedc dBAF |GBAG FD D2 :|!
